X: 1
T: Speed The Plough
R: reel
M: 4/4
L: 1/8
K: Dmaj
d3A BAFB|AF~F2 EFDE|F2AF ~G3B|
ABdg fgfe|d3A BAFB|AF~F2 EFDE|
F2AF GABG|1ABdg fedc:|2ABde fdde||
|:f2ab afdf|g2fg ed (3Bcd|a2ab afdB|
ABde fe~e2|f2ab afdf|g2fg edBA|
[1F2AF GABG|ABdg fddg:|2F2AF ~G3B|ABdg fgfe||


Tune 901	Setting 23328

